X:1
T:James Gibb editions
T:Quoniam tu illuminas - Guizzardi
%%score [ 1 2 3 4 ]
L:1/8
Q:1/4=80
M:4/4
K:Bb
V:1 treble nm="Alto I" snm="A I"
V:2 treble nm="Alto II" snm="A II"
V:3 treble-8 nm="Tenor" snm="T"
V:4 bass nm="Bass" snm="B"
V:1
"^Quoniam tu illuminas""^Cristoforo Guizzardi\n(early C17th)" B6 B2 | B4 B3 F | G3 G F4- | F4 z4 | %4
w: Quo- ni-|am Tu il-|lu- mi- nas||
 B4 G2 A2 |[M:4/4] B2 c2 B3 B | B4 z2 G2- | G2 F2 E4 | D4 z4 | z C D>=E F_E>FG- | GF G2 z F E>C | %11
w: lu- cer- nam|me- am: Do- mi-|ne De\-|* us me-|us,|il- lu- mi- na te- ne- bras|* me- as, il- lu- mi-|
 D2 B3 _A F2 | (_A2 GF G4) | !fermata!G8 |] %14
w: na te- ne- bras|me\- * * *|as.|
V:2
 G6 G2 | G4 G2 B2 | B3 B B4- | B4 z4 | z2 D2 E2 C2 |[M:4/4] F3 F F2 F2 | G4 z2 B2- | B2 B2 G4 | %8
w: Quo- ni-|am Tu il-|lu- mi- nas||lu- cer- nam|me- am: Do- mi-|ne De\-|* us me-|
 G4 G2 A>=B | c2 z2 z4 | c2 B>G A2 z2 | F2 G>E F2 z F- | FE C2 D4 | !fermata!=E8 |] %14
w: us, il- lu- mi-|na,|il- lu- mi- na,|il- lu- mi- na te\-|* ne- bras me-|as.|
V:3
 d6 d2 | d4 e2 f2- | f2 e4 (dc) | d2 z d e2 c2 | de (f3 e ed/c/ |[M:4/4][K:treble-8] d2 e4) d2 | %6
w: Quo- ni-|am Tu il\-|* lu- mi\- *|nas lu- cer- nam|me- am: Do\- * * * *|* * mi-|
 e4 z2 e2- | e2 d4 c2- | c2 =B2 z g f>d | e2 z2 z4 | z c d>e f2 z2 | z f e>c d2 d2- | dc c4 =B2 | %13
w: ne De\-|* us me\-|* us, il- lu- mi-|na,|il- lu- mi- na,|il- lu- mi- na te\-|* ne- bras me-|
 !fermata!c8 |] %14
w: as.|
V:4
 G,6 G,2 | G,4 E,2 D,2 | E,3 E, B,,4- | B,,2 B,2 G,2 A,2 | (B,4 C4) |[M:4/4] B,2 A,2 B,3 B, | %6
w: Quo- ni-|am Tu il-|lu- mi- nas|* lu- cer- nam|me\- *|* am: Do- mi-|
 E,4 z2 E,2- | E,2 B,2 C4 | G,4 z4 | C2 B,>G, A,C>B,G, | A,2 G,2 F,2 G,>A, | B,2 E,>E, B,4 | %12
w: ne De\-|* us me-|us,|il- lu- mi- na te- ne- bras|me- as, il- lu- mi-|na te- ne- bras|
 (_A,4 G,4) | !fermata!C,8 |] %14
w: me\- *|as.|

